**kern	**silbe	**harmony	**phrase	**leadinstrument	**rhyme	**timestamp	**harte
*ICvox	*	*M4/4	*	*	*	*	*M4/4
*VRlead	*	*	*	*	*	*	*
*Hstimme	*	*	*	*	*	*	*
*E:	*	*E:	*E:	*E:	*	*E:	*E:
*M4/4	*	*	*	*	*	*	*
*clefG2	*	*	*	*	*	*	*
r;	.	1r;	.	r	.	0	N.C.
=1	=1	=1	=1	=1	=1	=1	=1
*>Letter>A2	*>Letter>A2	*>Letter>A2	*>Letter>A2	*>Letter>A2	*>Letter>A2	*>Letter>A2	*>Letter>A2
*>Label>Intro	*>Label>Intro	*>Label>Intro	*>Label>Intro	*>Label>Intro	*>Label>Intro	*>Label>Intro	*>Label>Intro
1r	.	1EM	newline	guitar	.	0.728	E:maj
=2	=2	=2	=2	=2	=2	=2	=2
1r	.	2BM	.	guitar	.	2.463	B:maj
.	.	2AM	.	guitar	.	3.33	A:maj
=3	=3	=3	=3	=3	=3	=3	=3
1r	.	1EM	.	guitar	.	4.197	E:maj
=4	=4	=4	=4	=4	=4	=4	=4
2r	.	2BM	.	guitar	.	5.932	B:maj
4.r	.	2AM	.	guitar	.	6.799	A:maj
8f#	The	.	.	.	.	.	.
=5	=5	=5	=5	=5	=5	=5	=5
*>Letter>A	*>Letter>A	*>Letter>A	*>Letter>A	*>Letter>A	*>Letter>A	*>Letter>A	*>Letter>A
*>Label>Chorus	*>Label>Chorus	*>Label>Chorus	*>Label>Chorus	*>Label>Chorus	*>Label>Chorus	*>Label>Chorus	*>Label>Chorus
4g#	dream	1EM	newline	voice	.	7.667	E:maj
8g#	po-	.	.	.	.	.	.
4g#	-lice.	.	.	.	.	.	.
8g#	they	.	.	.	.	.	.
8g#	live	.	.	.	.	.	.
8g#	in-	.	.	.	.	.	.
=6	=6	=6	=6	=6	=6	=6	=6
16g#	-side	2BM	.	voice	.	9.42	B:maj
16a	_	.	.	.	.	.	.
8g#	of	.	.	.	.	.	.
8f#	my	.	.	.	.	.	.
4e	head.	.	.	.	A	.	.
.	.	2AM	.	voice	.	10.297	A:maj
8r	.	.	.	.	.	.	.
8r	.	.	.	.	.	.	.
8f#	The	.	.	.	.	.	.
=7	=7	=7	=7	=7	=7	=7	=7
4g#	dream	1EM	.	voice	.	11.174	E:maj
8g#	po-	.	.	.	.	.	.
4g#	-lice.	.	.	.	.	.	.
8g#	they	.	.	.	.	.	.
8g#	come	.	.	.	.	.	.
8g#	to	.	.	.	.	.	.
=8	=8	=8	=8	=8	=8	=8	=8
16g#	me	2BM	.	voice	.	12.928	B:maj
16a	_	.	.	.	.	.	.
8g#	in	.	.	.	.	.	.
8f#	my	.	.	.	.	.	.
4e	bed.	.	.	.	A	.	.
.	.	2AM	.	voice	.	13.805	A:maj
8r	.	.	.	.	.	.	.
8r	.	.	.	.	.	.	.
8f#	The	.	.	.	.	.	.
=9	=9	=9	=9	=9	=9	=9	=9
4g#	dream	1EM	newline	voice	.	14.682	E:maj
8g#	po-	.	.	.	.	.	.
4g#	-lice.	.	.	.	.	.	.
8g#	they're	.	.	.	.	.	.
8g#	co-	.	.	.	.	.	.
8g#	-ming	.	.	.	.	.	.
=10	=10	=10	=10	=10	=10	=10	=10
16a	to	2BM	.	voice	.	16.444	B:maj
16g#	_	.	.	.	.	.	.
8g#	a-	.	.	.	.	.	.
4f#	-rrest	.	.	.	A	.	.
4e	me.	2AM	.	voice	.	17.325	A:maj
4e	Oh	.	.	.	.	.	.
=11	=11	=11	=11	=11	=11	=11	=11
2.g#	no.	1EM	.	voice	.	18.207	E:maj
4r	.	.	.	.	.	.	.
=12	=12	=12	=12	=12	=12	=12	=12
2r	.	1EM	.	voice	.	19.969	E:maj
8r	.	.	.	.	.	.	.
8e	You	.	.	.	.	.	.
8f#	know	.	.	.	.	.	.
8g#	that	.	.	.	.	.	.
=13	=13	=13	=13	=13	=13	=13	=13
*>Letter>B	*>Letter>B	*>Letter>B	*>Letter>B	*>Letter>B	*>Letter>B	*>Letter>B	*>Letter>B
*>Label>Verse	*>Label>Verse	*>Label>Verse	*>Label>Verse	*>Label>Verse	*>Label>Verse	*>Label>Verse	*>Label>Verse
4a	talk	2F#m	newline	voice	B	21.732	F#:min
4r	.	.	.	.	.	.	.
2g#	is	2C#m	.	voice	.	22.615	C#:min
=14	=14	=14	=14	=14	=14	=14	=14
4f#	cheap;	2DM	.	voice	C	23.498	D:maj
4r	.	.	.	.	.	.	.
4c#	and	2AM	.	voice	.	24.381	A:maj
4d#	those	.	.	.	.	.	.
=15	=15	=15	=15	=15	=15	=15	=15
8e	ru-	2C#m	.	voice	.	25.264	C#:min
8d#	-mors	.	.	.	.	.	.
8c#	ain't	.	.	.	.	.	.
4d#	nice;	.	.	.	D	.	.
.	.	2G#M	.	voice	.	26.146	G#:maj
8r	.	.	.	.	.	.	.
4r	.	.	.	.	.	.	.
=16	=16	=16	=16	=16	=16	=16	=16
2r	.	4EM	.	voice	.	27.029	E:maj
.	.	2.BM	.	voice	.	27.471	B:maj
8r	.	.	.	.	.	.	.
8e	And	.	.	.	.	.	.
8f#	when	.	.	.	.	.	.
8g#	I	.	.	.	.	.	.
=17	=17	=17	=17	=17	=17	=17	=17
4.a	fall	2F#m	newline	voice	B	28.795	F#:min
8r	.	.	.	.	.	.	.
2g#	a-	2C#m	.	voice	.	29.676	C#:min
=18	=18	=18	=18	=18	=18	=18	=18
4f#	-sleep.	2DM	.	voice	C	30.557	D:maj
4r	.	.	.	.	.	.	.
4c#	I	2AM	.	voice	.	31.438	A:maj
4d#	don't	.	.	.	.	.	.
=19	=19	=19	=19	=19	=19	=19	=19
8e	think	2C#m	.	voice	.	32.318	C#:min
8d#	I'll	.	.	.	.	.	.
8c#	sur-	.	.	.	.	.	.
4d#	-vive	.	.	.	D	.	.
.	.	2G#M	.	voice	.	33.199	G#:maj
8r	.	.	.	.	.	.	.
8r	.	.	.	.	.	.	.
[8e	the	.	.	.	.	.	.
=20	=20	=20	=20	=20	=20	=20	=20
8e]	_	4EM	.	voice	.	34.08	E:maj
[4.B	night	.	.	.	C	.	.
.	.	2.BM	.	voice	.	34.52	B:maj
8B]	_	.	.	.	.	.	.
8r	.	.	.	.	.	.	.
8r	.	.	.	.	.	.	.
[8g#	The	.	.	.	.	.	.
=21	=21	=21	=21	=21	=21	=21	=21
8g#]	_	4EM	.	voice	.	35.841	E:maj
4.f#	night.	.	.	.	C	.	.
.	.	2.BM	.	voice	.	36.282	B:maj
4r	.	.	.	.	.	.	.
8e	'Cause	.	.	.	.	.	.
8e	they're	.	.	.	.	.	.
=22	=22	=22	=22	=22	=22	=22	=22
*>Letter>C	*>Letter>C	*>Letter>C	*>Letter>C	*>Letter>C	*>Letter>C	*>Letter>C	*>Letter>C
*>Label>Prechorus	*>Label>Prechorus	*>Label>Prechorus	*>Label>Prechorus	*>Label>Prechorus	*>Label>Prechorus	*>Label>Prechorus	*>Label>Prechorus
8e	wai-	1EM	newline	voice	.	37.603	E:maj
8e	-ting	.	.	.	.	.	.
8e	for	.	.	.	.	.	.
4e	me.	.	.	.	.	.	.
8r	.	.	.	.	.	.	.
8r	.	.	.	.	.	.	.
8e	They're	.	.	.	.	.	.
=23	=23	=23	=23	=23	=23	=23	=23
8f#	loo-	1EM	.	voice	.	39.324	E:maj
8e	-king	.	.	.	.	.	.
8d#	for	.	.	.	.	.	.
4e	me.	.	.	.	.	.	.
4r	.	.	.	.	.	.	.
8r	.	.	.	.	.	.	.
=24	=24	=24	=24	=24	=24	=24	=24
4.g#	eve-	1EM	.	voice	.	41.045	E:maj
4.g#	-ry	.	.	.	.	.	.
[4g#	sin-	.	.	.	.	.	.
=25	=25	=25	=25	=25	=25	=25	=25
8g#]	_	1EM	.	voice	.	42.766	E:maj
4.g#	-gle	.	.	.	.	.	.
4g#	night:	.	.	.	.	.	.
4g#	they're	.	.	.	.	.	.
=26	=26	=26	=26	=26	=26	=26	=26
2g#	dri-	2EM	newline	voice	.	44.487	E:maj
2f#	-ving	2DM	.	voice	.	45.352	D:maj
=27	=27	=27	=27	=27	=27	=27	=27
2e	me	2CM	.	voice	.	46.218	C:maj
2d	in-	2GM	.	voice	.	47.084	G:maj/3
=28	=28	=28	=28	=28	=28	=28	=28
[1c#	-sane.	1AM	.	voice	E	47.949	A:maj
=29	=29	=29	=29	=29	=29	=29	=29
4c#]	_	1AM	.	voice	.	49.68	A:maj
4r	.	.	.	.	.	.	.
4r	.	.	.	.	.	.	.
4e	Those	.	.	.	.	.	.
=30	=30	=30	=30	=30	=30	=30	=30
2g	men	2Em	newline	voice	.	51.412	E:min
2f#	in-	2DM	.	voice	.	52.279	D:maj
=31	=31	=31	=31	=31	=31	=31	=31
2e	-side	2CM	.	voice	.	53.146	C:maj
4d	my	2GM	.	voice	.	54.014	G:maj/3
4r	.	.	.	.	.	.	.
=32	=32	=32	=32	=32	=32	=32	=32
[1d#	brain.	1BM	.	voice	E	54.881	B:maj
=33	=33	=33	=33	=33	=33	=33	=33
2d#]	_	1BM	.	voice	.	56.616	B:maj
4.r	.	.	.	.	.	.	.
8f#	The	.	.	.	.	.	.
=34	=34	=34	=34	=34	=34	=34	=34
*>Letter>A	*>Letter>A	*>Letter>A	*>Letter>A	*>Letter>A	*>Letter>A	*>Letter>A	*>Letter>A
*>Label>Chorus	*>Label>Chorus	*>Label>Chorus	*>Label>Chorus	*>Label>Chorus	*>Label>Chorus	*>Label>Chorus	*>Label>Chorus
4g#	dream	1EM	newline	voice	.	58.351	E:maj
8g#	po-	.	.	.	.	.	.
4g#	-lice.	.	.	.	.	.	.
8g#	they	.	.	.	.	.	.
8g#	live	.	.	.	.	.	.
8g#	in-	.	.	.	.	.	.
=35	=35	=35	=35	=35	=35	=35	=35
16g#	-side	2BM	.	voice	.	60.1	B:maj
16a	_	.	.	.	.	.	.
8g#	of	.	.	.	.	.	.
8f#	my	.	.	.	.	.	.
4e	head.	.	.	.	A	.	.
.	.	2AM	.	voice	.	60.975	A:maj
8r	.	.	.	.	.	.	.
8r	.	.	.	.	.	.	.
8f#	The	.	.	.	.	.	.
=36	=36	=36	=36	=36	=36	=36	=36
4g#	dream	1EM	.	voice	.	61.85	E:maj
8g#	po-	.	.	.	.	.	.
4g#	-lice.	.	.	.	.	.	.
8g#	they	.	.	.	.	.	.
8g#	come	.	.	.	.	.	.
8g#	to	.	.	.	.	.	.
=37	=37	=37	=37	=37	=37	=37	=37
16g#	me	2BM	.	voice	.	63.599	B:maj
16a	_	.	.	.	.	.	.
8g#	in	.	.	.	.	.	.
8f#	my	.	.	.	.	.	.
4e	bed.	.	.	.	A	.	.
.	.	2AM	.	voice	.	64.474	A:maj
8r	.	.	.	.	.	.	.
8r	.	.	.	.	.	.	.
8f#	The	.	.	.	.	.	.
=38	=38	=38	=38	=38	=38	=38	=38
4g#	dream	1EM	newline	voice	.	65.349	E:maj
8g#	po-	.	.	.	.	.	.
4g#	-lice.	.	.	.	.	.	.
8g#	they're	.	.	.	.	.	.
8g#	co-	.	.	.	.	.	.
8g#	-ming	.	.	.	.	.	.
=39	=39	=39	=39	=39	=39	=39	=39
16a	to	2BM	.	voice	.	67.094	B:maj
16g#	_	.	.	.	.	.	.
8g#	a-	.	.	.	.	.	.
4f#	-rrest	.	.	.	A	.	.
4e	me.	2AM	.	voice	.	67.967	A:maj
4e	Oh	.	.	.	.	.	.
=40	=40	=40	=40	=40	=40	=40	=40
2.g#	no.	1EM	.	voice	.	68.84	E:maj
4r	.	.	.	.	.	.	.
=41	=41	=41	=41	=41	=41	=41	=41
2r	.	1EM	.	voice	.	70.586	E:maj
4r	.	.	.	.	.	.	.
8f#	Well	.	.	.	.	.	.
8g#	I	.	.	.	.	.	.
=42	=42	=42	=42	=42	=42	=42	=42
*>Letter>B	*>Letter>B	*>Letter>B	*>Letter>B	*>Letter>B	*>Letter>B	*>Letter>B	*>Letter>B
*>Label>Verse	*>Label>Verse	*>Label>Verse	*>Label>Verse	*>Label>Verse	*>Label>Verse	*>Label>Verse	*>Label>Verse
4a	can't	2F#m	newline	voice	.	72.332	F#:min
4r	.	.	.	.	.	.	.
4g#	tell	2C#m	.	voice	.	73.209	C#:min
4r	.	.	.	.	.	.	.
=43	=43	=43	=43	=43	=43	=43	=43
4f#	lies|	2DM	.	voice	.	74.087	D:maj
4r	.	.	.	.	.	.	.
4c#	'cause	2AM	.	voice	.	74.965	A:maj
4d#	they're	.	.	.	.	.	.
=44	=44	=44	=44	=44	=44	=44	=44
8e	liste-	2C#m	.	voice	.	75.842	C#:min
8d#	-ning	.	.	.	.	.	.
8c#	to	.	.	.	.	.	.
4d#	me;	.	.	.	C	.	.
.	.	2G#M	.	voice	.	76.72	G#:maj
8r	.	.	.	.	.	.	.
4r	.	.	.	.	.	.	.
=45	=45	=45	=45	=45	=45	=45	=45
2r	.	4EM	.	voice	.	77.597	E:maj
.	.	2.BM	.	voice	.	78.036	B:maj
8r	.	.	.	.	.	.	.
8e	And	.	.	.	.	.	.
16f#	when	.	.	.	.	.	.
8.g#	I	.	.	.	.	.	.
=46	=46	=46	=46	=46	=46	=46	=46
4a	fall	2F#m	newline	voice	.	79.352	F#:min
4r	.	.	.	.	.	.	.
4.g#	a-	2C#m	.	voice	.	80.221	C#:min
8r	.	.	.	.	.	.	.
=47	=47	=47	=47	=47	=47	=47	=47
4f#	-sleep:	2DM	.	voice	C	81.09	D:maj
4r	.	.	.	.	.	.	.
4c#	bet	2AM	.	voice	.	81.96	A:maj
4d#	they're	.	.	.	.	.	.
=48	=48	=48	=48	=48	=48	=48	=48
8e	spy-	2C#m	.	voice	.	82.829	C#:min
8d#	-ing	.	.	.	.	.	.
8c#	on	.	.	.	.	.	.
4d#	me	.	.	.	C	.	.
.	.	2G#M	.	voice	.	83.698	G#:maj
8r	.	.	.	.	.	.	.
8r	.	.	.	.	.	.	.
[8e	to-	.	.	.	.	.	.
=49	=49	=49	=49	=49	=49	=49	=49
8e]	_	4EM	.	voice	.	84.567	E:maj
[4.B	-night	.	.	.	.	.	.
.	.	2.BM	.	voice	.	85.002	B:maj
8B]	_	.	.	.	.	.	.
8r	.	.	.	.	.	.	.
8r	.	.	.	.	.	.	.
[8g#	to-	.	.	.	.	.	.
=50	=50	=50	=50	=50	=50	=50	=50
8g#]	_	4EM	.	voice	.	86.305	E:maj
4.f#	-night.	.	.	.	.	.	.
.	.	2.BM	.	voice	.	86.74	B:maj
4r	.	.	.	.	.	.	.
8e	'Cause	.	.	.	.	.	.
8e	they're	.	.	.	.	.	.
=51	=51	=51	=51	=51	=51	=51	=51
*>Letter>C	*>Letter>C	*>Letter>C	*>Letter>C	*>Letter>C	*>Letter>C	*>Letter>C	*>Letter>C
*>Label>Prechorus	*>Label>Prechorus	*>Label>Prechorus	*>Label>Prechorus	*>Label>Prechorus	*>Label>Prechorus	*>Label>Prechorus	*>Label>Prechorus
8e	wai-	1EM	newline	voice	.	88.044	E:maj
8e	-ting	.	.	.	.	.	.
8e	for	.	.	.	.	.	.
4e	me.	.	.	.	.	.	.
8r	.	.	.	.	.	.	.
8r	.	.	.	.	.	.	.
8e	They're	.	.	.	.	.	.
=52	=52	=52	=52	=52	=52	=52	=52
8f#	loo-	1EM	.	voice	.	89.776	E:maj
8e	-king	.	.	.	.	.	.
8d#	for	.	.	.	.	.	.
4e	me.	.	.	.	.	.	.
4r	.	.	.	.	.	.	.
8r	.	.	.	.	.	.	.
=53	=53	=53	=53	=53	=53	=53	=53
4.g#	eve-	1EM	.	voice	.	91.509	E:maj
4.g#	-ry	.	.	.	.	.	.
[4g#	sin-	.	.	.	.	.	.
=54	=54	=54	=54	=54	=54	=54	=54
8g#]	_	1EM	.	voice	.	93.242	E:maj
4.g#	-gle	.	.	.	.	.	.
4g#	night:	.	.	.	.	.	.
4g#	they're	.	.	.	.	.	.
=55	=55	=55	=55	=55	=55	=55	=55
2g#	dri-	2EM	newline	voice	.	94.974	E:maj
2f#	-ving	2DM	.	voice	.	95.842	D:maj
=56	=56	=56	=56	=56	=56	=56	=56
2e	me	2CM	.	voice	.	96.709	C:maj
2d	in-	2GM	.	voice	.	97.577	G:maj/3
=57	=57	=57	=57	=57	=57	=57	=57
[1c#	-sane.	1AM	.	voice	E	98.444	A:maj
=58	=58	=58	=58	=58	=58	=58	=58
4c#]	_	1AM	.	voice	.	100.179	A:maj
4r	.	.	.	.	.	.	.
4r	.	.	.	.	.	.	.
4e	Those	.	.	.	.	.	.
=59	=59	=59	=59	=59	=59	=59	=59
2g	men	2Em	newline	voice	.	101.914	E:min
2f#	in-	2DM	.	voice	.	102.793	D:maj
=60	=60	=60	=60	=60	=60	=60	=60
2e	-side	2CM	.	voice	.	103.671	C:maj
4d	my	2GM	.	voice	.	104.55	G:maj/3
4r	.	.	.	.	.	.	.
=61	=61	=61	=61	=61	=61	=61	=61
[1d#	brain.	1BM	.	voice	E	105.429	B:maj
=62	=62	=62	=62	=62	=62	=62	=62
2d#]	_	1BM	.	voice	.	107.186	B:maj
2r	.	.	.	.	.	.	.
=63	=63	=63	=63	=63	=63	=63	=63
*>Letter>D	*>Letter>D	*>Letter>D	*>Letter>D	*>Letter>D	*>Letter>D	*>Letter>D	*>Letter>D
*>Label>Bridge	*>Label>Bridge	*>Label>Bridge	*>Label>Bridge	*>Label>Bridge	*>Label>Bridge	*>Label>Bridge	*>Label>Bridge
8r	.	2Em	newline	voice	.	108.943	E:min
8E	I	.	.	.	F	.	.
8E	try	.	.	.	F	.	.
8E	to	.	.	.	.	.	.
8G#	sleep.	2Bm	.	voice	G	109.822	B:1
8G#	They're	.	.	.	H	.	.
8F#	wide	.	.	.	.	.	.
8E	a-	.	.	.	.	.	.
=64	=64	=64	=64	=64	=64	=64	=64
8G#	-wake.	2CM	.	voice	H	110.7	C:1
8G#	They	.	.	.	H	.	.
8F#	won't	.	.	.	.	.	.
8E	let	.	.	.	.	.	.
8G#	me	2GM	.	voice	.	111.579	G:1
16G#	a-	.	.	.	.	.	.
8F#	-lone.	.	.	.	I	.	.
16E	_	.	.	.	.	.	.
8r	.	.	.	.	.	.	.
=65	=65	=65	=65	=65	=65	=65	=65
8r	.	2AM	.	voice	.	112.457	A:maj
8A	They	.	.	.	H	.	.
8A	don't	.	.	.	.	.	.
8A	get	.	.	.	.	.	.
8c#	paid	2Em	.	voice	H	113.336	E:1
8c#	to	.	.	.	.	.	.
8B	take	.	.	.	H	.	.
8A	va-	.	.	.	H	.	.
=66	=66	=66	=66	=66	=66	=66	=66
8c#	-ca-	2Fd	.	voice	H	114.214	F:1
8c#	-tions	.	.	.	.	.	.
8B	or	.	.	.	.	.	.
8A	let	.	.	.	.	.	.
8c#	me	2CM	.	voice	G	115.093	C:1
16c#	a-	.	.	.	.	.	.
8B	-lone	.	.	.	I	.	.
16A	_	.	.	.	.	.	.
8r	.	.	.	.	.	.	.
=67	=67	=67	=67	=67	=67	=67	=67
8r	.	2Em	newline	voice	.	115.971	E:min
8E	They	.	.	.	H	.	.
8E	spy	.	.	.	F	.	.
8E	on	.	.	.	.	.	.
8G#	me.	2Bm	.	voice	G	116.853	B:1
8G#	I	.	.	.	F	.	.
8F#	try	.	.	.	F	.	.
8E	to	.	.	.	.	.	.
=68	=68	=68	=68	=68	=68	=68	=68
8G#	hide.	2CM	.	voice	F	117.735	C:1
8G#	They	.	.	.	H	.	.
8F#	won't	.	.	.	.	.	.
8E	let	.	.	.	.	.	.
8G#	me	2GM	.	voice	G	118.617	G:1
16G#	a-	.	.	.	.	.	.
8F#	-lone	.	.	.	I	.	.
16E	_	.	.	.	.	.	.
8r	.	.	.	.	.	.	.
=69	=69	=69	=69	=69	=69	=69	=69
8r	.	2AM	.	voice	.	119.5	A:maj
8A	They	.	.	.	H	.	.
8A	per-	.	.	.	.	.	.
8A	-se-	.	.	.	.	.	.
8c#	-cute	2Em	.	voice	J	120.382	E:1
8c#	me.	.	.	.	g	.	.
8B	They're	.	.	.	.	.	.
8A	the	.	.	.	.	.	.
=70	=70	=70	=70	=70	=70	=70	=70
8c#	judge	2Fd	.	voice	.	121.264	F:1
8c#	and	.	.	.	.	.	.
8B	ju-	.	.	.	(J	.	.
8A	-ry	.	.	.	g)	.	.
8c#	all	2Em	.	voice	.	122.146	E:1
16c#	in	.	.	.	.	.	.
8.B	one.	.	.	.	I	.	.
8r	.	.	.	.	.	.	.
=71	=71	=71	=71	=71	=71	=71	=71
*>Letter>B	*>Letter>B	*>Letter>B	*>Letter>B	*>Letter>B	*>Letter>B	*>Letter>B	*>Letter>B
*>Label>Solo	*>Label>Solo	*>Label>Solo	*>Label>Solo	*>Label>Solo	*>Label>Solo	*>Label>Solo	*>Label>Solo
1r	.	2F#m	newline	guitar	.	123.028	F#:min
.	.	2C#m	.	guitar	.	123.916	C#:min
=72	=72	=72	=72	=72	=72	=72	=72
1r	.	2DM	.	guitar	.	124.804	D:maj
.	.	2AM	.	guitar	.	125.692	A:maj
=73	=73	=73	=73	=73	=73	=73	=73
1r	.	2C#m	.	guitar	.	126.581	C#:min
.	.	2G#M	.	guitar	.	127.469	G#:maj
=74	=74	=74	=74	=74	=74	=74	=74
1r	.	4EM	.	guitar	.	128.357	E:maj
.	.	2.BM	.	guitar	.	128.801	B:maj
=75	=75	=75	=75	=75	=75	=75	=75
1r	.	2F#m	newline	guitar	.	130.133	F#:min
.	.	2C#m	.	guitar	.	131.005	C#:min
=76	=76	=76	=76	=76	=76	=76	=76
1r	.	2DM	.	guitar	.	131.876	D:maj
.	.	2AM	.	guitar	.	132.748	A:maj
=77	=77	=77	=77	=77	=77	=77	=77
1r	.	2C#m	.	guitar	.	133.619	C#:min
.	.	2G#M	.	guitar	.	134.49	G#:maj
=78	=78	=78	=78	=78	=78	=78	=78
1r	.	4EM	.	guitar	.	135.362	E:maj
.	.	2.BM	.	guitar	.	135.797	B:maj
=79	=79	=79	=79	=79	=79	=79	=79
2.r	.	4EM	.	guitar	.	137.105	E:maj
.	.	2.BM	.	guitar	.	137.54	B:maj
8e	'Cause	.	.	.	.	.	.
8e	they're	.	.	.	.	.	.
=80	=80	=80	=80	=80	=80	=80	=80
*>Letter>C	*>Letter>C	*>Letter>C	*>Letter>C	*>Letter>C	*>Letter>C	*>Letter>C	*>Letter>C
*>Label>Prechorus	*>Label>Prechorus	*>Label>Prechorus	*>Label>Prechorus	*>Label>Prechorus	*>Label>Prechorus	*>Label>Prechorus	*>Label>Prechorus
8e	wai-	1EM	newline	voice	.	138.847	E:maj
8e	-ting	.	.	.	.	.	.
8e	for	.	.	.	.	.	.
4e	me.	.	.	.	.	.	.
8r	.	.	.	.	.	.	.
8r	.	.	.	.	.	.	.
8e	They're	.	.	.	.	.	.
=81	=81	=81	=81	=81	=81	=81	=81
8f#	loo-	1EM	.	voice	.	139.195	E:maj
8e	-king	.	.	.	.	.	.
8d#	for	.	.	.	.	.	.
4e	me.	.	.	.	.	.	.
4r	.	.	.	.	.	.	.
8r	.	.	.	.	.	.	.
=82	=82	=82	=82	=82	=82	=82	=82
4.g#	eve-	1EM	.	voice	.	141.628	E:maj
4.g#	-ry	.	.	.	.	.	.
[4g#	sin-	.	.	.	.	.	.
=83	=83	=83	=83	=83	=83	=83	=83
8g#]	_	1EM	.	voice	.	143.018	E:maj
4.g#	-gle	.	.	.	.	.	.
4g#	night:	.	.	.	.	.	.
4g#	they're	.	.	.	.	.	.
=84	=84	=84	=84	=84	=84	=84	=84
2g#	dri-	2EM	newline	voice	.	145.798	E:maj
2f#	-ving	2DM	.	voice	.	146.675	D:maj
=85	=85	=85	=85	=85	=85	=85	=85
2e	me	2CM	.	voice	.	147.551	C:maj
2d	in-	2GM	.	voice	.	148.427	G:maj/3
=86	=86	=86	=86	=86	=86	=86	=86
[1c#	-sane.	1AM	.	voice	E	149.304	A:maj
=87	=87	=87	=87	=87	=87	=87	=87
4c#]	_	1Am	.	voice	.	151.056	A:min
4r	.	.	.	.	.	.	.
4r	.	.	.	.	.	.	.
4e	Those	.	.	.	.	.	.
=88	=88	=88	=88	=88	=88	=88	=88
2g	men	2Em	newline	voice	.	152.809	E:min
2f#	in-	2DM	.	voice	.	153.68	D:maj
=89	=89	=89	=89	=89	=89	=89	=89
2e	-side	2CM	.	voice	.	154.552	C:maj
4d	my	2GM	.	voice	.	155.424	G:maj/3
4r	.	.	.	.	.	.	.
=90	=90	=90	=90	=90	=90	=90	=90
*>Letter>E	*>Letter>E	*>Letter>E	*>Letter>E	*>Letter>E	*>Letter>E	*>Letter>E	*>Letter>E
*>Label>Interlude	*>Label>Interlude	*>Label>Interlude	*>Label>Interlude	*>Label>Interlude	*>Label>Interlude	*>Label>Interlude	*>Label>Interlude
[1d#	brain.	1BM	newline	voice	E	156.296	B:maj
=91	=91	=91	=91	=91	=91	=91	=91
1d#_	_	1Em	.	voice	.	158.021	E:min/5
=92	=92	=92	=92	=92	=92	=92	=92
1d#_	_	1Fd	.	voice	.	159.747	F:dim/#4
=93	=93	=93	=93	=93	=93	=93	=93
1d#_	_	1BMm	.	voice	.	161.472	B:7
=94	=94	=94	=94	=94	=94	=94	=94
1d#_	_	2D#M	newline	guitar	.	163.197	D#:maj/b6
.	.	2BM	.	guitar	.	164.038	B:maj6
=95	=95	=95	=95	=95	=95	=95	=95
1d#_	_	1Cd	.	guitar	.	164.879	C:dim/7
=96	=96	=96	=96	=96	=96	=96	=96
1d#]	_	1BM	.	guitar	.	166.561	B:maj
=97	=97	=97	=97	=97	=97	=97	=97
1r	.	1BM	.	guitar	.	168.243	B:maj
=98	=98	=98	=98	=98	=98	=98	=98
1r	.	1F#m	newline	synthesizer	.	169.925	F#:1(b5,b7,3)
=99	=99	=99	=99	=99	=99	=99	=99
1r	.	1GMM	.	synthesizer	.	171.646	G:maj7
=100	=100	=100	=100	=100	=100	=100	=100
*M3/8	*	*M3/8	*M3/8	*M3/8	*	*M3/8	*M3/8
4.r	.	4.A-m	.	synthesizer	.	173.366	A-:min
=101	=101	=101	=101	=101	=101	=101	=101
4.r	.	4.A-M	.	synthesizer	.	174.011	A-:maj
=102	=102	=102	=102	=102	=102	=102	=102
*M4/4	*	*M4/4	*M4/4	*M4/4	*	*M4/4	*M4/4
1r	.	1CM	newline	synthesizer	.	174.656	C:1(b5,b7,3)
=103	=103	=103	=103	=103	=103	=103	=103
1r	.	1D-M	.	synthesizer	.	176.38	D-:maj
=104	=104	=104	=104	=104	=104	=104	=104
*M3/8	*	*M3/8	*M3/8	*M3/8	*	*M3/8	*M3/8
4.r	.	4.DMm	.	synthesizer	.	178.103	D:7(b9)
=105	=105	=105	=105	=105	=105	=105	=105
4.r	.	4.DMm	.	synthesizer	.	.	D:7(b9)
=106	=106	=106	=106	=106	=106	=106	=106
*M4/4	*	*M4/4	*M4/4	*M4/4	*	*M4/4	*M4/4
1r	.	1E-dd	newline	synthesizer	.	179.396	E-:1(b5,b7,3)
=107	=107	=107	=107	=107	=107	=107	=107
1r	.	1GM	.	synthesizer	.	181.087	G:1(b5,b7,3)
=108	=108	=108	=108	=108	=108	=108	=108
*M3/8	*	*M3/8	*M3/8	*M3/8	*	*M3/8	*M3/8
4.r	.	4.A-MM	.	synthesizer	.	182.778	A-:maj7
=109	=109	=109	=109	=109	=109	=109	=109
4.r	.	4.Am	.	synthesizer	.	183.412	A:min
=110	=110	=110	=110	=110	=110	=110	=110
*M4/4	*	*M4/4	*M4/4	*M4/4	*	*M4/4	*M4/4
1r	.	1B-MM	newline	synthesizer	.	184.046	B-:maj7
=111	=111	=111	=111	=111	=111	=111	=111
1r	.	1Am	.	synthesizer	.	185.744	A:1(b5,b7,3)
=112	=112	=112	=112	=112	=112	=112	=112
1r	.	1B-MM	.	synthesizer	.	187.441	B-:maj7
=113	=113	=113	=113	=113	=113	=113	=113
1r	.	1Am	.	synthesizer	.	189.139	A:1(b5,b7,3)
=114	=114	=114	=114	=114	=114	=114	=114
1r	.	1B-MM	newline	synthesizer	.	190.837	B-:maj7
=115	=115	=115	=115	=115	=115	=115	=115
1r	.	1Am	.	synthesizer	.	192.527	A:1(b5,b7,3)
=116	=116	=116	=116	=116	=116	=116	=116
1r	.	1B-MM	.	synthesizer	.	194.217	B-:maj7
=117	=117	=117	=117	=117	=117	=117	=117
2r	.	1Am	.	synthesizer	.	195.907	A:1(b5,b7,3)
4.r	.	.	.	.	.	.	.
8f#	The	.	.	.	.	.	.
=118	=118	=118	=118	=118	=118	=118	=118
*>Letter>A	*>Letter>A	*>Letter>A	*>Letter>A	*>Letter>A	*>Letter>A	*>Letter>A	*>Letter>A
*>Label>Chorus	*>Label>Chorus	*>Label>Chorus	*>Label>Chorus	*>Label>Chorus	*>Label>Chorus	*>Label>Chorus	*>Label>Chorus
4g#	dream	1EM	newline	voice	.	197.598	E:maj
8g#	po-	.	.	.	.	.	.
4g#	-lice.	.	.	.	.	.	.
8g#	they	.	.	.	.	.	.
8g#	live	.	.	.	.	.	.
8g#	in-	.	.	.	.	.	.
=119	=119	=119	=119	=119	=119	=119	=119
16g#	-side	2BM	.	voice	.	199.353	B:maj
16a	_	.	.	.	.	.	.
8g#	of	.	.	.	.	.	.
8f#	my	.	.	.	.	.	.
4e	head.	.	.	.	A	.	.
.	.	2AM	.	voice	.	200.231	A:maj
8r	.	.	.	.	.	.	.
8r	.	.	.	.	.	.	.
8f#	The	.	.	.	.	.	.
=120	=120	=120	=120	=120	=120	=120	=120
4g#	dream	1EM	.	voice	.	201.109	E:maj
8g#	po-	.	.	.	.	.	.
4g#	-lice.	.	.	.	.	.	.
8g#	they	.	.	.	.	.	.
8g#	come	.	.	.	.	.	.
8g#	to	.	.	.	.	.	.
=121	=121	=121	=121	=121	=121	=121	=121
16g#	me	2BM	.	voice	.	202.864	B:maj
16a	_	.	.	.	.	.	.
8g#	in	.	.	.	.	.	.
8f#	my	.	.	.	.	.	.
4e	bed.	.	.	.	A	.	.
.	.	2AM	.	voice	.	203.742	A:maj
8r	.	.	.	.	.	.	.
8r	.	.	.	.	.	.	.
8f#	The	.	.	.	.	.	.
=122	=122	=122	=122	=122	=122	=122	=122
4g#	dream	1EM	newline	voice	.	204.62	E:maj
8g#	po-	.	.	.	.	.	.
4g#	-lice.	.	.	.	.	.	.
8g#	they're	.	.	.	.	.	.
8g#	co-	.	.	.	.	.	.
8g#	-ming	.	.	.	.	.	.
=123	=123	=123	=123	=123	=123	=123	=123
16a	to	2BM	.	voice	.	206.359	B:maj
16g#	_	.	.	.	.	.	.
8g#	a-	.	.	.	.	.	.
4f#	-rrest	.	.	.	A	.	.
4e	me.	2AM	.	voice	.	207.228	A:maj
8r	.	.	.	.	.	.	.
8f#	The	.	.	.	.	.	.
=124	=124	=124	=124	=124	=124	=124	=124
4g#	dream	1EM	.	voice	.	208.098	E:maj
8g#	po-	.	.	.	.	.	.
4g#	-lice.	.	.	.	.	.	.
8r	.	.	.	.	.	.	.
4r	.	.	.	.	.	.	.
=125	=125	=125	=125	=125	=125	=125	=125
2r	.	2BM	.	voice	.	209.837	B:maj
4.r	.	2AM	.	voice	.	210.706	A:maj
8f#	The	.	.	.	.	.	.
=126	=126	=126	=126	=126	=126	=126	=126
*>Label>>Fadeout	*>Label>>Fadeout	*>Label>>Fadeout	*>Label>>Fadeout	*>Label>>Fadeout	*>Label>>Fadeout	*>Label>>Fadeout	*>Label>>Fadeout
4g#	dream	1EM	newline	voice	.	211.576	E:maj
8g#	po-	.	.	.	.	.	.
4g#	-lice.	.	.	.	.	.	.
8r	.	.	.	.	.	.	.
4r	.	.	.	.	.	.	.
=127	=127	=127	=127	=127	=127	=127	=127
2r	.	2BM	.	voice	.	213.306	B:maj
4.r	.	2AM	.	voice	.	214.171	A:maj
8f#	The	.	.	.	.	.	.
=128	=128	=128	=128	=128	=128	=128	=128
4g#	dream	1EM	.	voice	.	215.036	E:maj
8g#	po-	.	.	.	.	.	.
4g#	-lice.	.	.	.	.	.	.
8r	.	.	.	.	.	.	.
4r	.	.	.	.	.	.	.
=129	=129	=129	=129	=129	=129	=129	=129
2r	.	2BM	.	voice	.	216.766	B:maj
4.r	.	2AM	.	voice	.	217.631	A:maj
8f#	The	.	.	.	.	.	.
=130	=130	=130	=130	=130	=130	=130	=130
4g#	dream	1EM	newline	voice	.	218.497	E:maj
8g#	po-	.	.	.	.	.	.
4g#	-lice.	.	.	.	.	.	.
8r	.	.	.	.	.	.	.
4r	.	.	.	.	.	.	.
=131	=131	=131	=131	=131	=131	=131	=131
2r	.	2BM	.	voice	.	220.242	B:maj
4.r	.	2AM	.	voice	.	221.115	A:maj
8f#	The	.	.	.	.	.	.
=132	=132	=132	=132	=132	=132	=132	=132
4g#	dream	1EM	.	voice	.	221.987	E:maj
8g#	po-	.	.	.	.	.	.
4g#	-lice.	.	.	.	.	.	.
8r	.	.	.	.	.	.	.
4r	.	.	.	.	.	.	.
=133	=133	=133	=133	=133	=133	=133	=133
2r	.	2BM	.	voice	.	223.733	B:maj
4.r	.	2AM	.	voice	.	224.605	A:maj
8f#	The	.	.	.	.	.	.
=134	=134	=134	=134	=134	=134	=134	=134
4g#	dream	1EM	newline	voice	.	225.478	E:maj
8g#	po-	.	.	.	.	.	.
4g#	-lice.	.	.	.	.	.	.
8r	.	.	.	.	.	.	.
4r	.	.	.	.	.	.	.
=135	=135	=135	=135	=135	=135	=135	=135
1r	.	2BM	.	voice	.	227.016	B:maj
.	.	2AM	.	voice	.	227.785	A:maj
r;	.	1r;	.	r	.	228.554	N.C.
r;	.	1r;	.	r	.	231.314	N.C.
*-	*-	*-	*-	*-	*-	*-	*-
!!!BillboardChartDate: 1979/11/10, 1979/11/17
!!!BillboardPeak: 26, 26
!!!BillboardWeeksOnChart: 10, 10
!!!COC: Cheap Trick
!!!ENC: Nathaniel Condit-Schultz
!!!EST: Awating manual error checking and editing.
!!!OTL: Dream Police
!!!RDF**chordsym: original McGill chord annotation + (implied pitch class set, with bass pitch in first position)
!!!RDF**harmony: **recip + pitch class of root + harmonic quality
!!!RDF**leadinstrument: original McGill primary instrumentation annotation
!!!RDF**phrase: newline = linebreak in original McGill transcription
!!!RDF**timestamp: McGill audio timestamp in seconds
!!!RDT: 2017/01/12/
!!!SampleActualRank: 29, 27
!!!SampleID#: 317, 323
!!!SampleTargetRank: 28, 27
